X:1
T: Laurelhurst
N:
C:Tune: "Green Fingers" by John Stapledon
S: Play  3  times
A:
O:
R:
M:3/4
K:Am
I:speed 130
%W: A1
% voice 1 (1 lines, 28 notes)
K:Am
M:3/4
L:1/16
e4 |a6 b2 c'2 b2 |a4 e8 |f6 e2 f2 g2 |e12 |d6 ^c2 d2 e2 |c2 B2 c2 e2 a2 c'2 |b6 a2 ^g2 a2 |b8 e4 |
%W: A2
% voice 1 (1 lines, 29 notes)
a6 b2 c'2 b2 |a4 e8 |f6 e2 f2 g2 |e12 |d6 ^c2 d2 e2 |c2 B2 c2 e2 a2 c'2 |b2 a2 ^g2 a2 b2 c'2 |a8 g4 |
%W: B1
% voice 1 (1 lines, 27 notes)
e6 d2 e2 f2 |g4 a8 |d6 ^c2 d2 e2 |f4 g8 |c6 B2 c2 d2 |e4 c2 d2 e2 c2 |f6 g2 f2 e2 |d8 g4 |
%W: B2
% voice 1 (1 lines, 31 notes)
c6 d2 c2 B2 |A4 f4 d4 |B6 c2 B2 A B |^G4 e4 G4 |A6 ^G2 A2 B2 |c2 B2 A2 B2 c2 A2 |d6 e2 f2 a2 |^g8 e4 |
%W: B3
% voice 1 (1 lines, 30 notes)
a6 b2 c'2 b2 |a4 A2 B2 c2 A2 |d6 e2 f4 |e8 b4 |c'6 b2 a2 ^g2 |a4 g2 f2 e2 d2 |c2 e2 d2 c2 B2 c2 |A8 |||
